X:1
T:Heilig ist der Herr Zebaoth
T:Dmitri Bortniansky (1750-1825)
T:Heilig ist der Herr Zebaoth 
T:Version für gem. Chor
T:CPDL - Creative Commons Attribution Non Commercial 3.0
T:CPDL - Creative Commons Attribution Non Commercial 3.0
C:Dmitri Bortniansky
Z:CPDL - Creative Commons Attribution Non Commercial 3.0
%%score [ ( 1 2 ) 3 4 ]
L:1/8
Q:1/4=120
M:4/4
K:Bb
V:1 treble nm="Sopran\nAlt"
V:2 treble 
V:3 treble-8 nm="Tenor"
V:4 bass nm="Bass"
V:1
!p!"^Mäßig"!<(! B4!<)!!>(! B2!>)! z2 |!mf!!<(! d4!<)!!>(! d2!>)! z2 |!f! f3!<(! f f2 f2!<)! | %3
w: Hei- lig,|hei- lig|hei- lig ist der|
 f4 e2!>(! d2 | c4!>)! z4 |!p! A6 A2 | B4!<(! B2 B2!<)! | c3 c!>(! B2 B2 | A4!>)! z2!f! c2 | c8 | %10
w: Herr Ze- ba-|oth!|Al- le|Lan- de sind|sei- ner Eh- re|voll. Ho-|sian-|
!>(! c4!>)! z2!mf! A2 | !>!G3 G!>(! G2 G2 | F4!>)! z2!p! F2 | A3 A A2 A2 | B6 B2 | %15
w: na, Ho-|sian- na in der|Höh'. Ge-|lobt sei, der da|kommt im|
 c4!>(! c2 B2!>)! |!>(! A4!>)! z2 z!f! B |!>(! B4!>)! B2 z!f! d |!>(! d4!>)! d2 z!ff! f | f6 d2 | %20
w: Na- men des|Herrn! Ho-|sian- na, Ho-|sian- na, Ho-|sian- na|
 e4 c4 |!>(! !fermata!B8!>)! |] %22
w: in der|Höh'!|
V:2
 D4 D2 x2 | F4 F2 x2 | B3 B B2 B2 | B4 F2 F2 | F4 x4 | F6 F2 | F4 F2 F2 | F3 F F2 F2 | F4 x2 F2 | %9
 =E8 | F4 x2 F2 | D3 D =E2 E2 | F4 x2 F2 | F3 F F2 F2 | F6 F2 | F4 F2 F2 | F4 x2 x D | D4 D2 x F | %18
 F4 F2 x B | B6 F2 | G4 E4 | D8 |] %22
V:3
!p! F4 F2 z2 |!mf! B4 B2 z2 |!f! d3 d d2 d2 | d4 c2 B2 | A4 z4 |!p! c6 c2 | d4 d2 d2 | e3 e d2 d2 | %8
w: Hei- lig,|hei- lig|hei- lig ist der|Herr Ze- ba-|oth!|Al- le|Lan- de sind|sei- ner Eh- re|
 c4 z2!f! A2 | G8 | A4 z2!mf! c2 | !>!B3 B B2 G2 | A4 z2!p! A2 | c3 c c2 c2 | B6 d2 | e4 e2 d2 | %16
w: voll. Ho-|sian-|na, Ho-|sian- na in der|Höh'. Ge-|lobt sei, der da|kommt im|Na- men des|
 c4 z2 z!f! F | F4 F2 z!f! B | B4 B2 z!ff! d | d6 B2 | B4 A4 | !fermata!B8 |] %22
w: Herrn! Ho-|sian- na, Ho-|sian- na, Ho-|sian- na|in der|Höh'!|
V:4
!p! B,,4 B,,2 z2 |!mf! B,,4 B,,2 z2 |!f! B,3 B, B,2 B,2 | B,4 A,2 B,2 | F,4 z4 |!p! F,6 F,2 | %6
 B,,4 B,,2 B,,2 | A,,3 A,, B,,2 B,,2 | F,4 z2!f! F,2 | C,8 | F,4 z2!mf! F,2 | !>!B,,3 B,, C,2 C,2 | %12
 F,4 z2!p! F,2 | _E,3 E, E,2 E,2 | D,6 B,,2 | A,,4 A,,2 B,,2 | F,4 z2 z!f! B,, | %17
 B,,4 B,,2 z!f! B,, | B,,4 B,,2 z!ff! B, | B,6 B,2 | E,4 F,4 | !fermata!B,,8 |] %22

